X: 841
T: the Slipper Hornpipe   #2
R: hornpipe
%S: s:2 b:10(5+5)
B: Francis O'Neill: "The Dance Music of Ireland" (1907) #841
Z: Frank Nordberg - http://www.musicaviva.com
F: http://www.musicaviva.com/abc/tunes/ireland/oneill-1001/0841/oneill-1001-0841-1.abc
N: Compacted via repeats and multiple endings [JC]
N: Compacted by using labels and play order [JC]
P: Play (A1A2)x2 + (BA2)x2
M: C|
L: 1/8
K: D
(3ABc "^A"|: d>f (3(edc) d>AB>G | F>dE>d D2 d2 |\
[1,3 c>eA>d c>de>f | g>ef>d (3cBA B>c :|\
[2,4 (3edc B>c d>fe>c |
| d2 d>d "^fine"d2 "^B":: e>c \
| A>ce>c A>ce>c | A>df>d A>df>d \
| B>ge>d c>de>f | g>ef>d (3cBA B>"^->A2"c |]
